svgs/sharp-solid/warehouse-full.svg

<svg xmlns="http://www.w3.org/2000/svg" viewBox="0 0 640 512"><!--! Font Awesome Pro 6.6.0 by @fontawesome - https://fontawesome.com License - https://fontawesome.com/license (Commercial License) Copyright 2024 Fonticons, Inc. --><path d="M0 512L0 128 320 0 640 128l0 384-96 0 0-320L96 192l0 320L0 512zM512 384l0 128-160 0 0-128 160 0zM128 224l192 0 0 128-192 0 0-128zM320 384l0 128-192 0 0-128 192 0z"/></svg>

<svg xmlns="http://www.w3.org/2000/svg" viewBox="0 0 640 512"><!--! Font Awesome Pro 6.4.2 by @fontawesome - https://fontawesome.com License - https://fontawesome.com/license (Commercial License) Copyright 2023 Fonticons, Inc. --><path d="M0 512V128L320 0 640 128V512H544V192H96V512H0zM512 384V512H352V384H512zM128 224H320V352H128V224zM320 384V512H128V384H320z"/></svg>
